lib/healthicons/icons/solid/symbols/geo_location.svg

<svg fill="none" height="48" viewBox="0 0 48 48" width="48" xmlns="http://www.w3.org/2000/svg"><path clip-rule="evenodd" d="m23.4236 41.8172c.0004.0002.0007.0004.5764-.8172zm1.1528 0 .0036-.0026.0091-.0064.0318-.0228c.0273-.0196.0666-.048.117-.085.1008-.0741.2463-.1826.4302-.3239.3676-.2827.889-.6971 1.513-1.2306 1.2466-1.0659 2.9097-2.6131 4.5754-4.54 3.3074-3.826 6.7435-9.2864 6.7435-15.529 0-3.7315-1.4736-7.3114-4.0984-9.9518-2.6251-2.64056-6.1867-4.1251-9.9016-4.1251s-7.2765 1.48454-9.9016 4.1251c-2.6248 2.6404-4.0984 6.2203-4.0984 9.9518 0 6.2426 3.4361 11.703 6.7435 15.529 1.6657 1.9269 3.3288 3.4741 4.5754 4.54.624.5335 1.1454.9479 1.513 1.2306.1839.1413.3294.2498.4302.3239.0504.037.0897.0654.117.085l.0318.0228.0091.0064.0036.0026c.3453.2431.8075.2431 1.1528 0zm-.5764-.8172.5764.8172c-.0004.0002-.0007.0004-.5764-.8172zm5-21c0 2.7614-2.2386 5-5 5s-5-2.2386-5-5 2.2386-5 5-5 5 2.2386 5 5z" fill="#333" fill-rule="evenodd"/></svg>

<svg width="48" height="48" viewBox="0 0 48 48" fill="none" xmlns="http://www.w3.org/2000/svg">
<path fill-rule="evenodd" clip-rule="evenodd" d="M23.4236 41.8172C23.424 41.8174 23.4243 41.8176 24 41L23.4236 41.8172ZM24.5764 41.8172L24.58 41.8146L24.5891 41.8082L24.6209 41.7854C24.6482 41.7658 24.6875 41.7374 24.7379 41.7004C24.8387 41.6263 24.9842 41.5178 25.1681 41.3765C25.5357 41.0938 26.0571 40.6794 26.6811 40.1459C27.9277 39.08 29.5908 37.5328 31.2565 35.6059C34.5639 31.7799 38 26.3195 38 20.0769C38 16.3454 36.5264 12.7655 33.9016 10.1251C31.2765 7.48454 27.7149 6 24 6C20.2851 6 16.7235 7.48454 14.0984 10.1251C11.4736 12.7655 10 16.3454 10 20.0769C10 26.3195 13.4361 31.7799 16.7435 35.6059C18.4092 37.5328 20.0723 39.08 21.3189 40.1459C21.9429 40.6794 22.4643 41.0938 22.8319 41.3765C23.0158 41.5178 23.1613 41.6263 23.2621 41.7004C23.3125 41.7374 23.3518 41.7658 23.3791 41.7854L23.4109 41.8082L23.42 41.8146L23.4236 41.8172C23.7689 42.0603 24.2311 42.0603 24.5764 41.8172ZM24 41L24.5764 41.8172C24.576 41.8174 24.5757 41.8176 24 41ZM29 20C29 22.7614 26.7614 25 24 25C21.2386 25 19 22.7614 19 20C19 17.2386 21.2386 15 24 15C26.7614 15 29 17.2386 29 20Z" fill="#333333"/>
</svg>
